icons/sayana_press_fill.svg

<svg width="48" height="48" viewBox="0 0 48 48" fill="none" xmlns="http://www.w3.org/2000/svg">
<path fill-rule="evenodd" clip-rule="evenodd" d="M25 4L23 6V11H21C20.4477 11 20 11.4477 20 12V17H19V19H16C13.7909 19 12 20.7909 12 23V40C12 42.2091 13.7909 44 16 44H32C34.2091 44 36 42.2091 36 40V23C36 20.7909 34.2091 19 32 19H29V17H28V12C28 11.4477 27.5523 11 27 11H25V4ZM25 11H23V19H22V20C22 20.5523 22.4477 21 23 21V24H25V21C25.5523 21 26 20.5523 26 20V19H25V11ZM24 36C26.7614 36 29 33.7614 29 31C29 28.2386 26.7614 26 24 26C21.2386 26 19 28.2386 19 31C19 33.7614 21.2386 36 24 36ZM23 38V40H25V38H23Z" fill="black"/>
</svg>

<svg
  xmlns="http://www.w3.org/2000/svg"
  width="24"
  height="24"
  viewBox="0 0 24 24"
  fill="none"
  stroke="currentColor"
  stroke-width="2"
  stroke-linecap="round"
  stroke-linejoin="round"
>
  <path
    fill-rule="evenodd"
    d="m25 4-2 2v5h-2a1 1 0 0 0-1 1v5h-1v2h-3a4 4 0 0 0-4 4v17a4 4 0 0 0 4 4h16a4 4 0 0 0 4-4V23a4 4 0 0 0-4-4h-3v-2h-1v-5a1 1 0 0 0-1-1h-2zm0 7h-2v8h-1v1a1 1 0 0 0 1 1v3h2v-3a1 1 0 0 0 1-1v-1h-1zm-1 25a5 5 0 1 0 0-10 5 5 0 0 0 0 10m-1 2v2h2v-2z"
    clip-rule="evenodd"
  />
</svg>
